app/images/icon/fb.svg

<svg width="30" height="30" viewBox="0 0 30 30" fill="none" xmlns="http://www.w3.org/2000/svg">
<path d="M30 15C30 6.71484 23.2852 0 15 0C6.71484 0 0 6.71484 0 15C0 23.2852 6.71484 30 15 30C15.0879 30 15.1758 30 15.2637 29.9941V18.3223H12.041V14.5664H15.2637V11.8008C15.2637 8.5957 17.2207 6.84961 20.0801 6.84961C21.4512 6.84961 22.6289 6.94922 22.9688 6.99609V10.3477H21C19.4473 10.3477 19.1426 11.0859 19.1426 12.1699V14.5605H22.8633L22.377 18.3164H19.1426V29.4199C25.4121 27.6211 30 21.8496 30 15Z" fill="#717174"/>
</svg>

<svg width="30" height="30" fill="none" xmlns="http://www.w3.org/2000/svg"><path d="M30 15c0-8.285-6.715-15-15-15S0 6.715 0 15s6.715 15 15 15c.088 0 .176 0 .264-.006V18.322H12.04v-3.756h3.223v-2.765c0-3.205 1.957-4.951 4.816-4.951 1.371 0 2.549.1 2.889.146v3.352H21c-1.553 0-1.857.738-1.857 1.822v2.39h3.72l-.486 3.756h-3.234V29.42C25.413 27.62 30 21.85 30 15z" fill="#fff" opacity=".4"/></svg>
